Newaita/actions/32/media-skip-backward.svg

<svg height="32" viewBox="0 0 32 32" width="32" xmlns="http://www.w3.org/2000/svg"><g fill="#424242"><path d="m27.761719 8.195312c.738281-.015624 1.34375.578126 1.34375 1.316407v13.230469c0 1.070312-1.210938 1.695312-2.082031 1.070312l-9.261719-6.613281c-.734375-.527344-.734375-1.617188 0-2.144531l9.261719-6.613282c.21875-.15625.476562-.242187.738281-.246094zm0 0"/><path d="m15.855469 8.195312c.738281-.015624 1.34375.578126 1.34375 1.316407v13.230469c0 1.070312-1.210938 1.695312-2.082031 1.070312l-9.261719-6.613281c-.734375-.527344-.734375-1.617188 0-2.144531l9.261719-6.613282c.214843-.15625.472656-.242187.738281-.246094zm0 0"/><path d="m4.589844 8.1875h-1.28125c-.378906 0-.683594.304688-.683594.683594v14.511718c0 .375.304688.683594.683594.683594h1.28125c.375 0 .683594-.308594.683594-.683594v-14.511718c0-.378906-.308594-.683594-.683594-.683594zm0 0"/></g></svg>

<svg xmlns="http://www.w3.org/2000/svg" xmlns:xlink="http://www.w3.org/1999/xlink" width="32px" height="32px" viewBox="0 0 32 32" version="1.1">
<g id="surface1">
     <defs>
  <style id="current-color-scheme" type="text/css">
   .ColorScheme-Text { color:#424242; } .ColorScheme-Highlight { color:#eeeeee; }
  </style>
 </defs>
<path style="fill:currentColor" class="ColorScheme-Text" d="M 27.761719 8.195312 C 28.5 8.179688 29.105469 8.773438 29.105469 9.511719 L 29.105469 22.742188 C 29.105469 23.8125 27.894531 24.4375 27.023438 23.8125 L 17.761719 17.199219 C 17.027344 16.671875 17.027344 15.582031 17.761719 15.054688 L 27.023438 8.441406 C 27.242188 8.285156 27.5 8.199219 27.761719 8.195312 Z M 27.761719 8.195312 "/>
     <defs>
  <style id="current-color-scheme" type="text/css">
   .ColorScheme-Text { color:#424242; } .ColorScheme-Highlight { color:#eeeeee; }
  </style>
 </defs>
<path style="fill:currentColor" class="ColorScheme-Text" d="M 15.855469 8.195312 C 16.59375 8.179688 17.199219 8.773438 17.199219 9.511719 L 17.199219 22.742188 C 17.199219 23.8125 15.988281 24.4375 15.117188 23.8125 L 5.855469 17.199219 C 5.121094 16.671875 5.121094 15.582031 5.855469 15.054688 L 15.117188 8.441406 C 15.332031 8.285156 15.589844 8.199219 15.855469 8.195312 Z M 15.855469 8.195312 "/>
     <defs>
  <style id="current-color-scheme" type="text/css">
   .ColorScheme-Text { color:#424242; } .ColorScheme-Highlight { color:#eeeeee; }
  </style>
 </defs>
<path style="fill:currentColor" class="ColorScheme-Text" d="M 4.589844 8.1875 L 3.308594 8.1875 C 2.929688 8.1875 2.625 8.492188 2.625 8.871094 L 2.625 23.382812 C 2.625 23.757812 2.929688 24.066406 3.308594 24.066406 L 4.589844 24.066406 C 4.964844 24.066406 5.273438 23.757812 5.273438 23.382812 L 5.273438 8.871094 C 5.273438 8.492188 4.964844 8.1875 4.589844 8.1875 Z M 4.589844 8.1875 "/>
</g>
</svg>
